icon-themes/breeze_svg/cmd/32/calloutshapes.line-callout-3.svg

<svg viewBox="0 0 32 32" xmlns="http://www.w3.org/2000/svg"><path d="m13 4v8 2 8h15v-18zm-7 8v16h2v-16z" fill="#4d4d4d"/></svg>

<svg xmlns="http://www.w3.org/2000/svg" viewBox="0 0 32 32">
 <path 
     style="fill:#4d4d4d" 
     d="M 13 4 L 13 12 L 13 14 L 13 22 L 28 22 L 28 4 L 13 4 z M 6 12 L 6 28 L 8 28 L 8 12 L 6 12 z "
     />
</svg>
